static/img/in-field/sliders-with-labels.svg

<svg fill="none" height="222" viewBox="0 0 1088 222" width="1088" xmlns="http://www.w3.org/2000/svg"><path d="m.5 0h1087v222h-1087z" fill="#f1f1f6"/><path d="m217.659 42v-15.7051h1.826v14.0508h6.929v1.6543zm18.182 0-.355-1.6758h-.086c-.587.7376-1.174 1.239-1.762 1.5039-.58.2578-1.307.3867-2.18.3867-1.168 0-2.084-.3007-2.75-.9023-.659-.6016-.989-1.4574-.989-2.5674 0-2.3776 1.902-3.6237 5.705-3.7383l1.998-.0644v-.7305c0-.9238-.201-1.6042-.602-2.041-.394-.444-1.028-.666-1.901-.666-.981 0-2.091.3008-3.33.9023l-.548-1.3642c.58-.3151 1.214-.5622 1.901-.7412.695-.1791 1.389-.2686 2.084-.2686 1.404 0 2.442.3115 3.115.9346.681.623 1.021 1.622 1.021 2.997v8.0352zm-4.029-1.2568c1.11 0 1.98-.3044 2.611-.9131.637-.6087.956-1.461.956-2.5567v-1.0634l-1.784.0752c-1.418.0501-2.442.2721-3.072.666-.623.3867-.934.9918-.934 1.8154 0 .6445.193 1.1351.58 1.4717.394.3366.941.5049 1.643.5049zm14.293-10.71c1.547 0 2.746.53 3.599 1.5898.859 1.0528 1.289 2.5459 1.289 4.4795s-.434 3.4375-1.3 4.5118c-.86 1.067-2.056 1.6005-3.588 1.6005-.766 0-1.468-.1396-2.106-.4189-.63-.2865-1.16-.7233-1.589-1.3105h-.129l-.376 1.5146h-1.279v-16.7148h1.784v4.0605c0 .9095-.029 1.7259-.086 2.4492h.086c.83-1.1745 2.062-1.7617 3.695-1.7617zm-.258 1.4932c-1.217 0-2.095.3509-2.632 1.0527-.537.6947-.805 1.8691-.805 3.5234s.275 2.8396.827 3.5557c.551.709 1.436 1.0635 2.653 1.0635 1.096 0 1.912-.3975 2.449-1.1924.537-.8021.806-1.9515.806-3.4482 0-1.5326-.269-2.6749-.806-3.4268-.537-.752-1.368-1.1279-2.492-1.1279zm13.025 10.6884c-1.74 0-3.115-.5299-4.125-1.5898-1.002-1.0599-1.504-2.5316-1.504-4.415 0-1.8978.466-3.4053 1.397-4.5225.938-1.1172 2.195-1.6758 3.77-1.6758 1.476 0 2.643.487 3.502 1.461.86.9668 1.289 2.2451 1.289 3.8349v1.1279h-8.11c.036 1.3822.383 2.4314 1.042 3.1475.666.7162 1.601 1.0742 2.804 1.0742 1.267 0 2.521-.2649 3.759-.7949v1.5898c-.63.2722-1.228.4655-1.793.5801-.559.1218-1.236.1826-2.031.1826zm-.483-10.7099c-.945 0-1.701.3079-2.267.9238-.558.6159-.888 1.4681-.988 2.5567h6.155c0-1.1244-.25-1.9838-.752-2.5782-.501-.6015-1.217-.9023-2.148-.9023zm9.426 10.4951h-1.783v-16.7148h1.783z" fill="#252a2e"/><path d="m239.7 78.4c0-2.1-1.7-3.8-3.8-3.8v-14.8l-11.3 10.7h-6.2v6.9 1.1 7.1h6.2l11.3 10.6001v-14c2.1 0 3.8-1.7001 3.8-3.8001z" fill="#252a2e"/><path d="m239.7 78.4c0-2.1-1.7-3.8-3.8-3.8v-14.8l-11.3 10.7h-6.2v6.9 1.1 7.1h6.2l11.3 10.6001v-14c2.1 0 3.8-1.7001 3.8-3.8001z" fill="#252a2e"/><path d="m243.6 70.6-2.9 2.9c1.2 1.3 2 3 2 4.9s-.8 3.6-2 4.9l2.9 2.9c2-2 3.2-4.8 3.2-7.8s-1.2-5.8-3.2-7.8z" fill="#252a2e"/><rect fill="#a3a6b1" height="16" rx="8" width="457" x="279.5" y="70"/><rect fill="#217cbb" height="16" rx="8" width="240" x="279.5" y="70"/><circle cx="499.5" cy="78" fill="#fff" r="19" stroke="#004f83" stroke-width="2"/><g fill="#252a2e"><path d="m776.7 78.4c0-2.1-1.7-3.8-3.8-3.8v-14.8l-11.3 10.7h-6.2v6.9 1.1 7.1h6.2l11.3 10.6001v-14c2.1 0 3.8-1.7001 3.8-3.8001z"/><path d="m790.3 60.9001-2.9 2.9c3.7 3.7 6 8.9 6 14.6s-2.3 10.8-6 14.6l2.9 2.9c4.5-4.5 7.3-10.7 7.3-17.5s-2.8-13-7.3-17.5z"/><path d="m785.5 65.7001-3 2.9c2.5 2.5 4 5.9 4 9.7s-1.5 7.3-4 9.8l2.9 2.9c3.2-3.2 5.3-7.7 5.3-12.7s-2-9.3-5.2-12.6z"/><path d="m780.6 70.6-2.9 2.9c1.2 1.3 2 3 2 4.9s-.8 3.6-2 4.9l2.9 2.9c2-2 3.2-4.8 3.2-7.8s-1.2-5.8-3.2-7.8z"/><path d="m833.735 87h-3.319v-9.0879l.032-1.4932.054-1.6328c-.551.5515-.935.9131-1.149 1.085l-1.805 1.4502-1.601-1.9981 5.06-4.0283h2.728zm15.254-7.8525c0 2.7428-.451 4.7731-1.353 6.0908-.895 1.3177-2.278 1.9765-4.147 1.9765-1.812 0-3.179-.6803-4.103-2.041-.917-1.3606-1.375-3.3694-1.375-6.0263 0-2.7715.447-4.8125 1.343-6.1231.895-1.3177 2.273-1.9765 4.135-1.9765 1.812 0 3.18.6875 4.104 2.0625.931 1.375 1.396 3.3873 1.396 6.0371zm-7.68 0c0 1.9264.164 3.3086.494 4.1464.336.8308.898 1.2461 1.686 1.2461.774 0 1.332-.4225 1.676-1.2675.344-.8451.516-2.2201.516-4.125 0-1.9265-.176-3.3086-.527-4.1465-.343-.8451-.898-1.2676-1.665-1.2676-.78 0-1.339.4225-1.676 1.2676-.336.8379-.504 2.22-.504 4.1465zm20.249 0c0 2.7428-.452 4.7731-1.354 6.0908-.895 1.3177-2.277 1.9765-4.146 1.9765-1.812 0-3.18-.6803-4.104-2.041-.917-1.3606-1.375-3.3694-1.375-6.0263 0-2.7715.448-4.8125 1.343-6.1231.895-1.3177 2.274-1.9765 4.136-1.9765 1.811 0 3.179.6875 4.103 2.0625.931 1.375 1.397 3.3873 1.397 6.0371zm-7.681 0c0 1.9264.165 3.3086.494 4.1464.337.8308.899 1.2461 1.687 1.2461.773 0 1.332-.4225 1.675-1.2675.344-.8451.516-2.2201.516-4.125 0-1.9265-.175-3.3086-.526-4.1465-.344-.8451-.899-1.2676-1.665-1.2676-.781 0-1.34.4225-1.676 1.2676-.337.8379-.505 2.22-.505 4.1465z"/><path d="m217.659 138v-15.705h1.826v14.051h6.929v1.654zm18.182 0-.355-1.676h-.086c-.587.738-1.174 1.239-1.762 1.504-.58.258-1.307.387-2.18.387-1.168 0-2.084-.301-2.75-.903-.659-.601-.989-1.457-.989-2.567 0-2.377 1.902-3.624 5.705-3.738l1.998-.065v-.73c0-.924-.201-1.604-.602-2.041-.394-.444-1.028-.666-1.901-.666-.981 0-2.091.301-3.33.902l-.548-1.364c.58-.315 1.214-.562 1.901-.741.695-.179 1.389-.269 2.084-.269 1.404 0 2.442.312 3.115.935.681.623 1.021 1.622 1.021 2.997v8.035zm-4.029-1.257c1.11 0 1.98-.304 2.611-.913.637-.609.956-1.461.956-2.557v-1.063l-1.784.075c-1.418.05-2.442.272-3.072.666-.623.387-.934.992-.934 1.816 0 .644.193 1.135.58 1.471.394.337.941.505 1.643.505zm14.293-10.71c1.547 0 2.746.53 3.599 1.59.859 1.053 1.289 2.546 1.289 4.48 0 1.933-.434 3.437-1.3 4.511-.86 1.067-2.056 1.601-3.588 1.601-.766 0-1.468-.14-2.106-.419-.63-.287-1.16-.723-1.589-1.311h-.129l-.376 1.515h-1.279v-16.715h1.784v4.061c0 .909-.029 1.726-.086 2.449h.086c.83-1.175 2.062-1.762 3.695-1.762zm-.258 1.493c-1.217 0-2.095.351-2.632 1.053-.537.695-.805 1.869-.805 3.524 0 1.654.275 2.839.827 3.555.551.709 1.436 1.064 2.653 1.064 1.096 0 1.912-.398 2.449-1.193.537-.802.806-1.951.806-3.448 0-1.532-.269-2.675-.806-3.427s-1.368-1.128-2.492-1.128zm13.025 10.689c-1.74 0-3.115-.53-4.125-1.59-1.002-1.06-1.504-2.532-1.504-4.415 0-1.898.466-3.405 1.397-4.522.938-1.118 2.195-1.676 3.77-1.676 1.476 0 2.643.487 3.502 1.461.86.966 1.289 2.245 1.289 3.835v1.128h-8.11c.036 1.382.383 2.431 1.042 3.147.666.716 1.601 1.074 2.804 1.074 1.267 0 2.521-.265 3.759-.795v1.59c-.63.272-1.228.466-1.793.58-.559.122-1.236.183-2.031.183zm-.483-10.71c-.945 0-1.701.308-2.267.924-.558.616-.888 1.468-.988 2.556h6.155c0-1.124-.25-1.983-.752-2.578-.501-.601-1.217-.902-2.148-.902zm9.426 10.495h-1.783v-16.715h1.783z"/></g><rect fill="#a3a6b1" height="16" rx="8" width="457" x="215.5" y="166"/><rect fill="#217cbb" height="16" rx="8" width="240" x="215.5" y="166"/><circle cx="435.5" cy="174" fill="#fff" r="19" stroke="#004f83" stroke-width="2"/><path d="m705.735 183h-3.319v-9.088l.032-1.493.054-1.633c-.551.552-.935.913-1.149 1.085l-1.805 1.45-1.601-1.998 5.06-4.028h2.728zm15.254-7.853c0 2.743-.451 4.774-1.353 6.091-.895 1.318-2.278 1.977-4.147 1.977-1.812 0-3.179-.68-4.103-2.041-.917-1.361-1.375-3.37-1.375-6.027 0-2.771.447-4.812 1.343-6.123.895-1.317 2.273-1.976 4.135-1.976 1.812 0 3.18.687 4.104 2.062.931 1.375 1.396 3.388 1.396 6.037zm-7.68 0c0 1.927.164 3.309.494 4.147.336.831.898 1.246 1.686 1.246.774 0 1.332-.422 1.676-1.268.344-.845.516-2.22.516-4.125 0-1.926-.176-3.308-.527-4.146-.343-.845-.898-1.268-1.665-1.268-.78 0-1.339.423-1.676 1.268-.336.838-.504 2.22-.504 4.146zm20.249 0c0 2.743-.452 4.774-1.354 6.091-.895 1.318-2.277 1.977-4.146 1.977-1.812 0-3.18-.68-4.104-2.041-.917-1.361-1.375-3.37-1.375-6.027 0-2.771.448-4.812 1.343-6.123.895-1.317 2.274-1.976 4.136-1.976 1.811 0 3.179.687 4.103 2.062.931 1.375 1.397 3.388 1.397 6.037zm-7.681 0c0 1.927.165 3.309.494 4.147.337.831.899 1.246 1.687 1.246.773 0 1.332-.422 1.675-1.268.344-.845.516-2.22.516-4.125 0-1.926-.175-3.308-.526-4.146-.344-.845-.899-1.268-1.665-1.268-.781 0-1.34.423-1.676 1.268-.337.838-.505 2.22-.505 4.146z" fill="#252a2e"/><rect fill="#252a2e" height="56" rx="4" width="56" x="752.5" y="146"/><path d="m791.367 160.733-21.734 13.2 21.667 13.334z" fill="#fff"/><rect fill="#252a2e" height="56" rx="4" width="56" x="816.5" y="146"/><path d="m833.633 187.267 21.734-13.2-21.667-13.334z" fill="#fff"/></svg>

<svg width="1088" height="222" viewBox="0 0 1088 222" fill="none" xmlns="http://www.w3.org/2000/svg"><rect width="1087" height="222" transform="translate(0.5)" fill="#F1F1F6"/><path d="M217.659 42V26.2949H219.485V40.3457H226.414V42H217.659ZM235.841 42L235.486 40.3242H235.4C234.813 41.0618 234.226 41.5632 233.638 41.8281C233.058 42.0859 232.331 42.2148 231.458 42.2148C230.29 42.2148 229.374 41.9141 228.708 41.3125C228.049 40.7109 227.719 39.8551 227.719 38.7451C227.719 36.3675 229.621 35.1214 233.424 35.0068L235.422 34.9424V34.2119C235.422 33.2881 235.221 32.6077 234.82 32.1709C234.426 31.7269 233.792 31.5049 232.919 31.5049C231.938 31.5049 230.828 31.8057 229.589 32.4072L229.041 31.043C229.621 30.7279 230.255 30.4808 230.942 30.3018C231.637 30.1227 232.331 30.0332 233.026 30.0332C234.43 30.0332 235.468 30.3447 236.141 30.9678C236.822 31.5908 237.162 32.5898 237.162 33.9648V42H235.841ZM231.812 40.7432C232.922 40.7432 233.792 40.4388 234.423 39.8301C235.06 39.2214 235.379 38.3691 235.379 37.2734V36.21L233.595 36.2852C232.177 36.3353 231.153 36.5573 230.523 36.9512C229.9 37.3379 229.589 37.943 229.589 38.7666C229.589 39.4111 229.782 39.9017 230.169 40.2383C230.563 40.5749 231.11 40.7432 231.812 40.7432ZM246.105 30.0332C247.652 30.0332 248.851 30.5632 249.704 31.623C250.563 32.6758 250.993 34.1689 250.993 36.1025C250.993 38.0361 250.559 39.54 249.693 40.6143C248.833 41.6813 247.637 42.2148 246.105 42.2148C245.339 42.2148 244.637 42.0752 243.999 41.7959C243.369 41.5094 242.839 41.0726 242.41 40.4854H242.281L241.905 42H240.626V25.2852H242.41V29.3457C242.41 30.2552 242.381 31.0716 242.324 31.7949H242.41C243.24 30.6204 244.472 30.0332 246.105 30.0332ZM245.847 31.5264C244.63 31.5264 243.752 31.8773 243.215 32.5791C242.678 33.2738 242.41 34.4482 242.41 36.1025C242.41 37.7568 242.685 38.9421 243.237 39.6582C243.788 40.3672 244.673 40.7217 245.89 40.7217C246.986 40.7217 247.802 40.3242 248.339 39.5293C248.876 38.7272 249.145 37.5778 249.145 36.0811C249.145 34.5485 248.876 33.4062 248.339 32.6543C247.802 31.9023 246.971 31.5264 245.847 31.5264ZM258.872 42.2148C257.132 42.2148 255.757 41.6849 254.747 40.625C253.745 39.5651 253.243 38.0934 253.243 36.21C253.243 34.3122 253.709 32.8047 254.64 31.6875C255.578 30.5703 256.835 30.0117 258.41 30.0117C259.886 30.0117 261.053 30.4987 261.912 31.4727C262.772 32.4395 263.201 33.7178 263.201 35.3076V36.4355H255.091C255.127 37.8177 255.474 38.8669 256.133 39.583C256.799 40.2992 257.734 40.6572 258.937 40.6572C260.204 40.6572 261.458 40.3923 262.696 39.8623V41.4521C262.066 41.7243 261.468 41.9176 260.903 42.0322C260.344 42.154 259.667 42.2148 258.872 42.2148ZM258.389 31.5049C257.444 31.5049 256.688 31.8128 256.122 32.4287C255.564 33.0446 255.234 33.8968 255.134 34.9854H261.289C261.289 33.861 261.039 33.0016 260.537 32.4072C260.036 31.8057 259.32 31.5049 258.389 31.5049ZM267.815 42H266.032V25.2852H267.815V42Z" fill="#252A2E"/><path d="M239.7 78.4C239.7 76.3 238 74.6 235.9 74.6V59.8L224.6 70.5H218.4V77.4V78.5V85.6H224.6L235.9 96.2001V82.2001C238 82.2001 239.7 80.5 239.7 78.4Z" fill="#252A2E"/><path d="M239.7 78.4C239.7 76.3 238 74.6 235.9 74.6V59.8L224.6 70.5H218.4V77.4V78.5V85.6H224.6L235.9 96.2001V82.2001C238 82.2001 239.7 80.5 239.7 78.4Z" fill="#252A2E"/><path d="M243.6 70.6L240.7 73.5C241.9 74.8 242.7 76.5 242.7 78.4C242.7 80.3 241.9 82 240.7 83.3L243.6 86.2C245.6 84.2 246.8 81.4 246.8 78.4C246.8 75.4 245.6 72.6 243.6 70.6Z" fill="#252A2E"/><rect x="279.5" y="70" width="457" height="16" rx="8" fill="#A3A6B1"/><rect x="279.5" y="70" width="240" height="16" rx="8" fill="#217CBB"/><circle cx="499.5" cy="78" r="19" fill="#fff" stroke="#004F83" stroke-width="2"/><path d="M776.7 78.4C776.7 76.3 775 74.6 772.9 74.6V59.8L761.6 70.5H755.4V77.4V78.5V85.6H761.6L772.9 96.2001V82.2001C775 82.2001 776.7 80.5 776.7 78.4Z" fill="#252A2E"/><path d="M790.3 60.9001L787.4 63.8001C791.1 67.5001 793.4 72.7001 793.4 78.4001C793.4 84.1001 791.1 89.2001 787.4 93.0001L790.3 95.9001C794.8 91.4001 797.6 85.2001 797.6 78.4001C797.6 71.6001 794.8 65.4001 790.3 60.9001Z" fill="#252A2E"/><path d="M785.5 65.7001L782.5 68.6001C785 71.1001 786.5 74.5001 786.5 78.3001C786.5 82.1001 785 85.6001 782.5 88.1001L785.4 91.0001C788.6 87.8001 790.7 83.3001 790.7 78.3001C790.7 73.3001 788.7 69.0001 785.5 65.7001Z" fill="#252A2E"/><path d="M780.6 70.6L777.7 73.5C778.9 74.8 779.7 76.5 779.7 78.4C779.7 80.3 778.9 82 777.7 83.3L780.6 86.2C782.6 84.2 783.8 81.4 783.8 78.4C783.8 75.4 782.6 72.6 780.6 70.6Z" fill="#252A2E"/><path d="M833.735 87H830.416V77.9121L830.448 76.4189L830.502 74.7861C829.951 75.3376 829.567 75.6992 829.353 75.8711L827.548 77.3213L825.947 75.3232L831.007 71.2949H833.735V87ZM848.989 79.1475C848.989 81.8903 848.538 83.9206 847.636 85.2383C846.741 86.556 845.358 87.2148 843.489 87.2148C841.677 87.2148 840.31 86.5345 839.386 85.1738C838.469 83.8132 838.011 81.8044 838.011 79.1475C838.011 76.376 838.458 74.335 839.354 73.0244C840.249 71.7067 841.627 71.0479 843.489 71.0479C845.301 71.0479 846.669 71.7354 847.593 73.1104C848.524 74.4854 848.989 76.4977 848.989 79.1475ZM841.309 79.1475C841.309 81.0739 841.473 82.4561 841.803 83.2939C842.139 84.1247 842.701 84.54 843.489 84.54C844.263 84.54 844.821 84.1175 845.165 83.2725C845.509 82.4274 845.681 81.0524 845.681 79.1475C845.681 77.221 845.505 75.8389 845.154 75.001C844.811 74.1559 844.256 73.7334 843.489 73.7334C842.709 73.7334 842.15 74.1559 841.813 75.001C841.477 75.8389 841.309 77.221 841.309 79.1475ZM861.558 79.1475C861.558 81.8903 861.106 83.9206 860.204 85.2383C859.309 86.556 857.927 87.2148 856.058 87.2148C854.246 87.2148 852.878 86.5345 851.954 85.1738C851.037 83.8132 850.579 81.8044 850.579 79.1475C850.579 76.376 851.027 74.335 851.922 73.0244C852.817 71.7067 854.196 71.0479 856.058 71.0479C857.869 71.0479 859.237 71.7354 860.161 73.1104C861.092 74.4854 861.558 76.4977 861.558 79.1475ZM853.877 79.1475C853.877 81.0739 854.042 82.4561 854.371 83.2939C854.708 84.1247 855.27 84.54 856.058 84.54C856.831 84.54 857.39 84.1175 857.733 83.2725C858.077 82.4274 858.249 81.0524 858.249 79.1475C858.249 77.221 858.074 75.8389 857.723 75.001C857.379 74.1559 856.824 73.7334 856.058 73.7334C855.277 73.7334 854.718 74.1559 854.382 75.001C854.045 75.8389 853.877 77.221 853.877 79.1475Z" fill="#252A2E"/><path d="M217.659 138V122.295H219.485V136.346H226.414V138H217.659ZM235.841 138L235.486 136.324H235.4C234.813 137.062 234.226 137.563 233.638 137.828C233.058 138.086 232.331 138.215 231.458 138.215C230.29 138.215 229.374 137.914 228.708 137.312C228.049 136.711 227.719 135.855 227.719 134.745C227.719 132.368 229.621 131.121 233.424 131.007L235.422 130.942V130.212C235.422 129.288 235.221 128.608 234.82 128.171C234.426 127.727 233.792 127.505 232.919 127.505C231.938 127.505 230.828 127.806 229.589 128.407L229.041 127.043C229.621 126.728 230.255 126.481 230.942 126.302C231.637 126.123 232.331 126.033 233.026 126.033C234.43 126.033 235.468 126.345 236.141 126.968C236.822 127.591 237.162 128.59 237.162 129.965V138H235.841ZM231.812 136.743C232.922 136.743 233.792 136.439 234.423 135.83C235.06 135.221 235.379 134.369 235.379 133.273V132.21L233.595 132.285C232.177 132.335 231.153 132.557 230.523 132.951C229.9 133.338 229.589 133.943 229.589 134.767C229.589 135.411 229.782 135.902 230.169 136.238C230.563 136.575 231.11 136.743 231.812 136.743ZM246.105 126.033C247.652 126.033 248.851 126.563 249.704 127.623C250.563 128.676 250.993 130.169 250.993 132.103C250.993 134.036 250.559 135.54 249.693 136.614C248.833 137.681 247.637 138.215 246.105 138.215C245.339 138.215 244.637 138.075 243.999 137.796C243.369 137.509 242.839 137.073 242.41 136.485H242.281L241.905 138H240.626V121.285H242.41V125.346C242.41 126.255 242.381 127.072 242.324 127.795H242.41C243.24 126.62 244.472 126.033 246.105 126.033ZM245.847 127.526C244.63 127.526 243.752 127.877 243.215 128.579C242.678 129.274 242.41 130.448 242.41 132.103C242.41 133.757 242.685 134.942 243.237 135.658C243.788 136.367 244.673 136.722 245.89 136.722C246.986 136.722 247.802 136.324 248.339 135.529C248.876 134.727 249.145 133.578 249.145 132.081C249.145 130.549 248.876 129.406 248.339 128.654C247.802 127.902 246.971 127.526 245.847 127.526ZM258.872 138.215C257.132 138.215 255.757 137.685 254.747 136.625C253.745 135.565 253.243 134.093 253.243 132.21C253.243 130.312 253.709 128.805 254.64 127.688C255.578 126.57 256.835 126.012 258.41 126.012C259.886 126.012 261.053 126.499 261.912 127.473C262.772 128.439 263.201 129.718 263.201 131.308V132.436H255.091C255.127 133.818 255.474 134.867 256.133 135.583C256.799 136.299 257.734 136.657 258.937 136.657C260.204 136.657 261.458 136.392 262.696 135.862V137.452C262.066 137.724 261.468 137.918 260.903 138.032C260.344 138.154 259.667 138.215 258.872 138.215ZM258.389 127.505C257.444 127.505 256.688 127.813 256.122 128.429C255.564 129.045 255.234 129.897 255.134 130.985H261.289C261.289 129.861 261.039 129.002 260.537 128.407C260.036 127.806 259.32 127.505 258.389 127.505ZM267.815 138H266.032V121.285H267.815V138Z" fill="#252A2E"/><rect x="215.5" y="166" width="457" height="16" rx="8" fill="#A3A6B1"/><rect x="215.5" y="166" width="240" height="16" rx="8" fill="#217CBB"/><circle cx="435.5" cy="174" r="19" fill="#fff" stroke="#004F83" stroke-width="2"/><path d="M705.735 183H702.416V173.912L702.448 172.419L702.502 170.786C701.951 171.338 701.567 171.699 701.353 171.871L699.548 173.321L697.947 171.323L703.007 167.295H705.735V183ZM720.989 175.147C720.989 177.89 720.538 179.921 719.636 181.238C718.741 182.556 717.358 183.215 715.489 183.215C713.677 183.215 712.31 182.535 711.386 181.174C710.469 179.813 710.011 177.804 710.011 175.147C710.011 172.376 710.458 170.335 711.354 169.024C712.249 167.707 713.627 167.048 715.489 167.048C717.301 167.048 718.669 167.735 719.593 169.11C720.524 170.485 720.989 172.498 720.989 175.147ZM713.309 175.147C713.309 177.074 713.473 178.456 713.803 179.294C714.139 180.125 714.701 180.54 715.489 180.54C716.263 180.54 716.821 180.118 717.165 179.272C717.509 178.427 717.681 177.052 717.681 175.147C717.681 173.221 717.505 171.839 717.154 171.001C716.811 170.156 716.256 169.733 715.489 169.733C714.709 169.733 714.15 170.156 713.813 171.001C713.477 171.839 713.309 173.221 713.309 175.147ZM733.558 175.147C733.558 177.89 733.106 179.921 732.204 181.238C731.309 182.556 729.927 183.215 728.058 183.215C726.246 183.215 724.878 182.535 723.954 181.174C723.037 179.813 722.579 177.804 722.579 175.147C722.579 172.376 723.027 170.335 723.922 169.024C724.817 167.707 726.196 167.048 728.058 167.048C729.869 167.048 731.237 167.735 732.161 169.11C733.092 170.485 733.558 172.498 733.558 175.147ZM725.877 175.147C725.877 177.074 726.042 178.456 726.371 179.294C726.708 180.125 727.27 180.54 728.058 180.54C728.831 180.54 729.39 180.118 729.733 179.272C730.077 178.427 730.249 177.052 730.249 175.147C730.249 173.221 730.074 171.839 729.723 171.001C729.379 170.156 728.824 169.733 728.058 169.733C727.277 169.733 726.718 170.156 726.382 171.001C726.045 171.839 725.877 173.221 725.877 175.147Z" fill="#252A2E"/><rect x="752.5" y="146" width="56" height="56" rx="4" fill="#252A2E"/><path d="M791.367 160.733L769.633 173.933L791.3 187.267L791.367 160.733Z" fill="#fff"/><rect x="816.5" y="146" width="56" height="56" rx="4" fill="#252A2E"/><path d="M833.633 187.267L855.367 174.067L833.7 160.733L833.633 187.267Z" fill="#fff"/></svg>
